X:1
T:[ID 1-133]
T:[ID 1-133]
T:Bezeichnung standardisiert: March March
T:Urheber unbekannt Datum in der hier transkribierten schriftlichen Quelle: vermutlich vor 1767
C:Urheber unbekannt
C:Datum in der hier transkribierten schriftlichen Quelle: vermutlich vor 1767
L:1/8
M:4/4
K:D
V:1 treble 
V:1
 .d2 .d2 .d2 z/ d'/c'/b/ | a2 a2 a3 d/e/ | fe/f/ gf/e/ fe/f/ gf/e/ | fe/f/ gf/e/ ab/a/ g/f/e/d/ | %4
 ee/e/ e/e/e/e/ e3 :: c/d/ | .e2 .e2 .e2 z/ a/g/f/ | .e2 .e2 .e2 z A | %8
 d/c/d/e/ d/A/B/=c/ B A/B/GB | e/d/e/f/ e/B/c/d/ cB/c/ Ae | fe/f/ gf/e/ fe/f/ gf/e/ | %11
 fe/f/ gf/g/ g/A/B/g/ fe | dd/d/ d/d/d/d/ d3 :| %13

